X: 1
T: Asherstone Schottisch. Leadley 4d.01
M: 2/4
L: 1/16
Z: vmp. Peter Dunk 2016
Q: 1/4=90
K: G
dc |\
(B2{BA}G2)(A2{AG}F2) | G2(D2 D)GBd |\
[1,3 e2(F2 F)Acf | g2B2B2 (dc) :|\
[2,4 e2(E2 _E)DGB | (A4 G2):|
|: gf |{f}\
    e^def gefg | (3gab d4 ed |\
[1,3 cBcd eABc | (3Bcd B4 gf :|\
[2,4 cBAG GFBA | A2G2G2 :|
K: C
|: cd |\
     e2^de a2ge | g2fd A2Bc |\
[1,3 d2^cd g2fB | d2cG E2cd :|\
[2,4 d^cde feAB | d2c2c2!D.C.! :|
